static/logos/drift-wordmark-color.svg

<svg width="100" height="24" viewBox="0 0 100 24" fill="none" xmlns="http://www.w3.org/2000/svg">
<g clip-path="url(#clip0_1_2941)">
<path d="M36.5208 23.3246L33.5198 16.3206H30.9555V23.3246H24.1406V0.312744H36.1466C41.4 0.312744 44.2139 3.8771 44.2139 8.25334C44.2139 12.2563 41.9624 14.3197 40.1485 15.2583L44.2139 23.387H36.5218V23.3246H36.5208ZM37.3337 8.62958C37.3337 7.06522 36.2713 6.37809 35.0832 6.37809H30.9555V10.9424H35.0832C36.2713 10.9424 37.3337 10.2553 37.3337 8.62958Z" fill="#111111"/>
<path d="M61.9688 23.3246V0.312744H79.1024V6.37809H68.7846V9.44245H78.8519V15.5078H68.7846V23.3246H61.9688Z" fill="#111111"/>
<path d="M0 23.3246V0.312744H10.1307C17.2594 0.312744 22.5119 4.43948 22.5119 11.8177C22.5119 19.1969 17.196 23.387 10.1307 23.387H0V23.3246ZM15.5703 11.8187C15.5703 8.69195 13.8198 6.37809 10.1307 6.37809H6.87822V17.2593H10.1307C13.5693 17.2593 15.5703 14.6949 15.5703 11.8187Z" fill="#111111"/>
<path d="M86.8575 23.3248V6.37822H80.7921V0.312876H99.7397V6.37822H93.7367V23.3248H86.8575ZM60.4694 0.312876H60.7189C61.0317 0.375253 61.2199 0.688124 61.0317 0.937629C60.9694 1.00099 60.9694 1.06337 60.907 1.06337L55.1545 7.62871C55.1545 7.62871 55.0288 7.75446 55.0288 7.81683C54.8406 8.1297 55.0288 8.44158 55.4664 8.50396H57.8426C58.2179 8.56733 58.405 8.88021 58.2179 9.19209L58.0298 9.3802L53.7783 14.1951C53.7159 14.2575 53.6525 14.3198 53.6525 14.3832C53.4654 14.6951 53.6525 15.007 54.0911 15.007H55.6545C55.8416 15.007 56.0288 15.1327 56.1545 15.2585C56.1826 15.3452 56.1858 15.4381 56.1635 15.5265C56.1413 15.615 56.0946 15.6953 56.0288 15.7585L55.904 15.8832L45.9614 23.2624C45.9614 23.2624 45.8367 23.3872 45.7733 23.3872C45.6486 23.4495 45.5862 23.4495 45.4614 23.3872C45.3991 23.3248 45.3357 23.2624 45.3991 23.1367C45.3991 23.0743 45.4614 22.9486 45.4614 22.9486L48.1505 17.3842L48.2129 17.1961C48.401 16.8208 48.2129 16.509 47.8367 16.4466H45.5862C45.2733 16.3832 45.0862 16.1337 45.2109 15.8208C45.2109 15.7585 45.3357 15.6327 45.3357 15.6327L48.7129 10.005C48.7129 10.005 48.7753 9.94261 48.7753 9.8802C48.9634 9.56733 48.7129 9.25447 48.3377 9.19209H46.1486C45.8367 9.19209 45.6486 9.06733 45.6486 8.81683C45.6486 8.69208 45.6486 8.56733 45.7109 8.50396L46.7109 6.69109L50.0882 0.7505L50.1515 0.625748C50.3397 0.312876 50.5892 0.187134 51.0268 0.187134L60.4694 0.312876Z" fill="#111111"/>
</g>
<defs>
<clipPath id="clip0_1_2941">
<rect width="100" height="23.7624" fill="white"/>
</clipPath>
</defs>
</svg>

<svg xmlns="http://www.w3.org/2000/svg" width="266.667" height="64" fill="none" viewBox="0 0 100 24"><g fill="#111" clip-path="url(#a)"><path d="m36.52 23.325-3-7.004h-2.565v7.004h-6.814V.313h12.006c5.253 0 8.067 3.564 8.067 7.94 0 4.003-2.252 6.067-4.066 7.005l4.066 8.129h-7.692v-.062h-.001Zm.814-14.695c0-1.565-1.063-2.252-2.25-2.252h-4.129v4.564h4.128c1.188 0 2.25-.687 2.25-2.312ZM61.969 23.325V.313h17.133v6.065H68.785v3.064h10.067v6.066H68.785v7.817h-6.816ZM0 23.325V.313h10.13c7.13 0 12.382 4.126 12.382 11.505 0 7.379-5.316 11.569-12.381 11.569H0v-.062Zm15.57-11.506c0-3.127-1.75-5.44-5.44-5.44H6.879v10.88h3.253c3.438 0 5.44-2.564 5.44-5.44ZM86.858 23.325V6.378h-6.066V.313H99.74v6.065h-6.003v16.947h-6.88ZM60.469.313h.25c.313.062.5.375.313.625-.063.063-.063.125-.125.125L55.155 7.63s-.126.125-.126.188c-.188.313 0 .625.437.687h2.377c.375.063.562.376.375.688l-.188.188-4.252 4.815c-.062.063-.125.125-.125.188-.188.312 0 .624.438.624h1.563c.188 0 .375.126.5.252a.485.485 0 0 1-.125.5l-.125.124-9.943 7.38s-.124.124-.188.124c-.124.063-.187.063-.312 0-.062-.062-.125-.125-.062-.25 0-.063.062-.188.062-.188l2.69-5.565.062-.188c.188-.375 0-.687-.376-.75h-2.25c-.314-.063-.5-.312-.376-.625 0-.063.125-.188.125-.188l3.377-5.628s.062-.062.062-.125c.188-.313-.062-.626-.437-.688h-2.19c-.311 0-.5-.125-.5-.375 0-.125 0-.25.063-.313l1-1.813 3.377-5.94.063-.125c.189-.313.438-.439.876-.439l9.442.126Z"/></g><defs><clipPath id="a"><path fill="#fff" d="M0 0h100v23.762H0z"/></clipPath></defs></svg>
